icons/swagger-light.svg

<svg width="256px" height="256px" viewBox="0 0 256 256" version="1.1" xmlns="http://www.w3.org/2000/svg" xmlns:xlink="http://www.w3.org/1999/xlink">
    <g id="Page-1" stroke="none" stroke-width="1" fill="none" fill-rule="evenodd">
        <g id="swagger-light" fill-rule="nonzero">
            <path d="M196,0 L60,0 C26.8629,0 0,26.8629 0,60 L0,196 C0,229.137 26.8629,256 60,256 L196,256 C229.137,256 256,229.137 256,196 L256,60 C256,26.8629 229.137,0 196,0 Z" id="Path" fill="#F4F2ED"></path>
            <g id="Group" transform="translate(18, 18)">
                <g>
                    <path d="M109.998901,214.755832 C52.2366698,214.755832 5.24191695,167.765007 5.24191695,110 C5.24191695,52.2349931 52.2366698,5.24416815 109.998901,5.24416815 C167.761131,5.24416815 214.755884,52.2393907 214.755884,110.002199 C214.755884,167.765007 167.761131,214.755832 109.998901,214.755832 Z" id="Path" fill="#85EA2D"></path>
                    <path d="M109.998901,10.4861375 C164.959872,10.4861375 209.511769,55.0384792 209.511769,110 C209.511769,164.959322 164.959872,209.513863 109.998901,209.513863 C55.0401279,209.513863 10.4860327,164.959322 10.4860327,110 C10.4860327,55.040678 55.0401279,10.4861375 109.998901,10.4861375 M109.998901,0 C49.3452601,0 0,49.3457533 0,110 C0,170.654247 49.3452601,220 109.998901,220 C170.652541,220 220,170.654247 220,110 C220,49.3457533 170.652541,0 109.998901,0 L109.998901,0 Z" id="Shape" fill="#173647"></path>
                </g>
                <path d="M70.2385315,75.5754119 C69.8997143,79.3252457 70.3639379,83.2021182 70.1131251,86.9935681 C69.8161101,90.7872083 69.3496864,94.5370421 68.5884478,98.2868759 C67.5301941,103.637836 64.1860244,107.683364 59.5745904,111.054271 C68.5488458,116.86958 69.5630972,125.884952 70.1549273,135.029552 C70.4519423,139.95997 70.3243359,144.932004 70.8325617,149.818616 C71.213181,153.610066 72.6938561,154.580379 76.632056,154.705228 C78.2403376,154.746844 79.8882212,154.705228 81.7539159,154.705228 L81.7539159,166.419078 C70.1153253,168.39913 60.5074377,165.113645 58.1357173,155.296615 C57.3722786,151.715436 56.8640528,148.048835 56.6968443,144.340617 C56.4416314,140.422128 56.8640528,136.50364 56.5692378,132.585151 C55.7221949,121.839424 54.325124,118.216629 44,117.710664 L44,104.354072 C44.7612386,104.185417 45.4806751,104.058378 46.2419138,103.975146 C51.9138016,103.679452 54.325124,101.951287 55.5527863,96.3900558 C56.1468164,93.2732255 56.4856336,90.1125887 56.61104,86.9103358 C57.0356615,80.8015237 56.8662529,74.5656728 57.9223065,68.4984768 C59.4029816,59.7766087 64.8218566,55.5624264 73.8379142,55.0564617 C76.376843,54.9294229 78.9597741,55.0564617 81.8793222,55.0564617 L81.8793222,67.0243891 C80.6516599,67.1098117 79.5934062,67.2762763 78.4933504,67.2762763 C71.1713788,67.0221988 70.7885594,69.5082159 70.2385315,75.5754119 Z M84.3324467,103.300526 L84.1630381,103.300526 C79.9300233,103.090255 76.2910386,106.37574 76.0776278,110.589923 C75.8664171,114.845721 79.1665846,118.470707 83.3995994,118.678787 L83.9078252,118.678787 C88.0990379,118.932865 91.6940203,115.728422 91.9492332,111.558046 L91.9492332,111.137504 C92.0350376,106.881705 88.6072637,103.385949 84.3324467,103.300526 Z M110.870193,103.300526 C106.764785,103.173488 103.334811,106.37574 103.209405,110.421268 C103.209405,110.675345 103.209405,110.885616 103.253407,111.137504 C103.253407,115.730612 106.384166,118.680978 111.125406,118.680978 C115.780843,118.680978 118.702591,115.64738 118.702591,110.885616 C118.658589,106.292508 115.567432,103.25891 110.870193,103.300526 Z M138.043772,103.300526 C133.727153,103.215104 130.127771,106.629818 130.002364,110.927233 C130.002364,115.224647 133.47194,118.678787 137.788559,118.678787 L137.874364,118.678787 C141.768561,119.353407 145.704561,115.603573 145.959774,111.095887 C146.168785,106.923321 142.360391,103.300526 138.043772,103.300526 Z M175.331265,103.931339 C170.420615,103.721068 167.965291,102.078326 166.739829,97.441411 C165.97639,94.4932356 165.512166,91.4158312 165.342758,88.3822332 C165.00394,82.7355793 165.045743,77.0473092 164.665123,71.4006554 C163.776278,58.0024467 154.042984,53.3261061 139.905067,55.641278 L139.905067,67.2718956 C142.146981,67.2718956 143.882869,67.2718956 145.618757,67.3135118 C148.624109,67.3551279 150.910025,68.4940961 151.20484,71.8233878 C151.501855,74.8569858 151.501855,77.9321999 151.79887,81.0096044 C152.392901,87.1206069 152.729518,93.3126513 153.787771,99.3382311 C154.720619,104.310265 158.148393,108.018483 162.421009,111.052081 C154.931829,116.065731 152.729518,123.228089 152.348898,131.277528 C152.137688,136.797143 152.010081,142.358374 151.715266,147.921796 C151.460053,152.977062 149.684563,154.619805 144.562703,154.746844 C143.12383,154.78846 141.726759,154.915499 140.118478,155.000921 L140.118478,166.925042 C143.12383,166.925042 145.87397,167.093697 148.624109,166.925042 C157.173743,166.419078 162.337405,162.290318 164.031491,154.030608 C164.750928,149.479116 165.173349,144.888198 165.300956,140.29509 C165.595771,136.080907 165.556169,131.825109 165.97859,127.654733 C166.612222,121.123188 169.617575,118.4269 176.178308,118.006358 C176.81414,117.920935 177.40597,117.796087 178,117.585816 L178,104.227033 C176.897744,104.099994 176.134305,103.975146 175.331265,103.931339 Z" id="Shape" fill="#173647"></path>
            </g>
        </g>
    </g>
</svg>

<svg xmlns="http://www.w3.org/2000/svg" width="256" height="256"><g id="Page-1" fill="none" fill-rule="evenodd" stroke="none" stroke-width="1"><g id="swagger-light" fill-rule="nonzero"><path id="Path" fill="#F4F2ED" d="M196 0H60C26.863 0 0 26.863 0 60v136c0 33.137 26.863 60 60 60h136c33.137 0 60-26.863 60-60V60c0-33.137-26.863-60-60-60"/><g id="Group" transform="translate(18 18)"><path id="Path" fill="#85EA2D" d="M109.999 214.756C52.237 214.756 5.242 167.765 5.242 110S52.237 5.244 109.999 5.244 214.756 52.24 214.756 110.002 167.76 214.756 109.999 214.756"/><path id="Shape" fill="#173647" d="M109.999 10.486c54.96 0 99.513 44.552 99.513 99.514 0 54.96-44.552 99.514-99.513 99.514-54.959 0-99.513-44.555-99.513-99.514 0-54.96 44.554-99.514 99.513-99.514m0-10.486C49.345 0 0 49.346 0 110s49.345 110 109.999 110S220 170.654 220 110 170.653 0 109.999 0"/><path id="Shape" fill="#173647" d="M70.239 75.575c-.34 3.75.125 7.627-.126 11.419-.297 3.793-.763 7.543-1.525 11.293-1.058 5.35-4.402 9.396-9.013 12.767 8.974 5.816 9.988 14.831 10.58 23.976.297 4.93.17 9.902.678 14.789.38 3.791 1.86 4.761 5.8 4.886 1.607.042 3.255 0 5.12 0v11.714c-11.638 1.98-21.246-1.305-23.617-11.122-.764-3.582-1.272-7.248-1.44-10.956-.254-3.919.168-7.837-.127-11.756-.847-10.746-2.244-14.368-12.569-14.874v-13.357a20 20 0 0 1 2.242-.379c5.672-.296 8.083-2.024 9.31-7.585a64 64 0 0 0 1.059-9.48c.425-6.108.255-12.344 1.311-18.412 1.481-8.721 6.9-12.936 15.916-13.442 2.539-.127 5.122 0 8.041 0v11.968c-1.227.086-2.286.252-3.386.252-7.322-.254-7.704 2.232-8.254 8.3m14.093 27.726h-.169c-4.233-.21-7.872 3.075-8.085 7.289-.212 4.256 3.089 7.88 7.322 8.089h.508c4.191.254 7.786-2.95 8.041-7.121v-.42c.086-4.256-3.342-7.752-7.617-7.837m26.538 0c-4.105-.128-7.535 3.075-7.66 7.12 0 .254 0 .465.043.717 0 4.593 3.131 7.543 7.872 7.543 4.656 0 7.578-3.034 7.578-7.795-.044-4.593-3.136-7.627-7.833-7.585m27.174 0c-4.317-.086-7.916 3.329-8.042 7.626 0 4.298 3.47 7.752 7.787 7.752h.085c3.895.674 7.83-3.075 8.086-7.583.209-4.173-3.6-7.795-7.916-7.795m37.287.63c-4.91-.21-7.366-1.853-8.591-6.49a47 47 0 0 1-1.397-9.059c-.34-5.646-.297-11.335-.678-16.981-.889-13.399-10.622-18.075-24.76-15.76v11.63c2.242 0 3.978 0 5.714.043 3.005.041 5.291 1.18 5.586 4.51.297 3.033.297 6.108.594 9.186.594 6.11.93 12.303 1.989 18.328.933 4.972 4.36 8.68 8.633 11.714-7.49 5.014-9.691 12.176-10.072 20.226-.211 5.52-.339 11.08-.634 16.644-.255 5.055-2.03 6.698-7.152 6.825-1.44.041-2.836.168-4.445.254v11.924c3.006 0 5.756.169 8.506 0 8.55-.506 13.713-4.635 15.407-12.894a107 107 0 0 0 1.27-13.736c.295-4.214.255-8.47.678-12.64.633-6.532 3.639-9.228 10.2-9.649a9 9 0 0 0 1.821-.42v-13.359c-1.102-.127-1.866-.252-2.669-.296"/></g></g></g></svg>
